svg/ticket.svg

<svg xmlns="http://www.w3.org/2000/svg" viewBox="0 0 32 32" enable-background="new 0 0 32 32"><path d="M 2 7 L 2 8 L 2 13 L 2 14 L 3 14 C 4.1901961 14 5 14.809804 5 16 C 5 17.190196 4.1901961 18 3 18 L 2 18 L 2 19 L 2 24 L 2 25 L 3 25 L 29 25 L 30 25 L 30 24 L 30 19 L 30 18 L 29 18 C 27.809804 18 27 17.190196 27 16 C 27 14.809804 27.809804 14 29 14 L 30 14 L 30 13 L 30 8 L 30 7 L 29 7 L 3 7 L 2 7 z M 4 9 L 28 9 L 28 12.1875 C 26.284831 12.638423 25 14.142915 25 16 C 25 17.857085 26.284831 19.361577 28 19.8125 L 28 23 L 4 23 L 4 19.8125 C 5.7151692 19.361577 7 17.857085 7 16 C 7 14.142915 5.7151692 12.638423 4 12.1875 L 4 9 z" color="#000" overflow="visible" enable-background="accumulate"/></svg>

<svg xmlns="http://www.w3.org/2000/svg" viewBox="0 0 32 32"><path style="text-indent:0;text-align:start;line-height:normal;text-transform:none;block-progression:tb;-inkscape-font-specification:Bitstream Vera Sans" d="M2 7v7h1c1.19 0 2 .81 2 2s-.81 2-2 2H2v7h28v-7h-1c-1.19 0-2-.81-2-2s.81-2 2-2h1V7H2zm2 2h24v3.188c-1.715.45-3 1.955-3 3.812 0 1.857 1.285 3.362 3 3.813V23H4v-3.188c1.715-.45 3-1.955 3-3.812 0-1.857-1.285-3.362-3-3.813V9z" color="#000" overflow="visible" font-family="Bitstream Vera Sans"/></svg>
